X: 11823
Q: "Not too quick."
M: C
L: 1/8
K: G
|:\
(GA)B2 (cB)(AG) | G6 "^Fin."z2 H:|\
g2B2 e2B2 |
c4 d2B2 | G4 c2A2 |\
(FGFE) D4 | A2A2 B2G2 |\
d4 z2A2 | B2G2 d2Hg2 |\


